; generated by SuperSlicer 2.4 on 2023-03-18 at 22:04:58 UTC


;
;

;
;
; TODO: check the size of the extruder and the y-bar clearance. Optimize & test supports.

; external perimeters extrusion width = 0.44mm
; perimeters extrusion width = 0.44mm
; infill extrusion width = 0.44mm
; solid infill extrusion width = 0.44mm
; top infill extrusion width = 0.44mm
; first layer extrusion width = 0.44mm

; object:{"name":"Duo_Cartridge_LID (1)","id":"Duo_Cartridge_LID (1).stl id:0 copy 0","object_center":[175.000000,175.000000,0.000000],"boundingbox_center":[175.000000,175.000000,0.892381],"boundingbox_size":[121.958206,51.164276,1.784761]}
; plater:{"center":[175.000000,175.000000,0.000000],"boundingbox_center":[175.000000,175.000000,0.892381],"boundingbox_size":[121.958206,51.164276,1.784761]}

;TYPE:Custom
; M190 S0
; M109 S0 ; uncomment to remove set&wait temp gcode added automatically after this start gcode
print_start EXTRUDER=255 BED=100 CHAMBER=50
M107
G21 ; set units to millimeters
G90 ; use absolute coordinates
M83 ; use relative distances for extrusion
;_TOOLCHANGE 0
M104 S255 ; set temperature
M109 S255 ; set temperature and wait for it to be reached
M190 S100 ; set bed temperature and wait for it to be reached
M107
;LAYER_CHANGE
;Z:0.2
;HEIGHT:0.2
;BEFORE_LAYER_CHANGE
;0.2


G1 Z0.2 F30000
;AFTER_LAYER_CHANGE
;0.2
G92 E0
G1 E-0.75 F1800
G1 Z0.6 F30000
M204 S1000
G1 X111.498 Y145.8
G1 Z0.2
G1 E0.75 F1800
;TYPE:Skirt
;WIDTH:0.52
G1 F4200
G1 X110.735 Y146.505 E0.0375
G1 X110.164 Y147.18 E0.03193
G1 X109.597 Y148.051 E0.0375
G1 X109.193 Y148.881 E0.03334
G1 X108.826 Y150.03 E0.04354
G1 X108.689 Y151.2 E0.04251
G1 X108.693 Y195.792 E1.60976
G1 X109.309 Y197.98 E0.08203
G1 X110.066 Y199.217 E0.05234
G1 X111.03 Y200.308 E0.05259
G1 X112.667 Y201.107 E0.06572
G1 X113.755 Y201.367 E0.0404
G1 X141.142 Y206.073 E1.00314
G1 X144.699 Y206.526 E0.12945
G1 X146.847 Y206.648 E0.07766
G1 X203.153 Y206.648 E2.0326
G1 X205.111 Y206.541 E0.0708
G1 X208.942 Y206.059 E0.13936
G1 X235.979 Y201.422 E0.99028
G1 X237.075 Y201.168 E0.04061
G1 X239.083 Y200.036 E0.08322
G1 X239.891 Y199.217 E0.04153
G1 X240.965 Y197.328 E0.07845
G1 X241.176 Y196.517 E0.03026
G1 X241.311 Y195.461 E0.03842
G1 X241.311 Y151.199 E1.59781
G1 X241.174 Y150.03 E0.0425
G1 X240.807 Y148.881 E0.04353
G1 X240.403 Y148.051 E0.03334
G1 X239.836 Y147.18 E0.0375
G1 X239.265 Y146.505 E0.03193
G1 X238.502 Y145.8 E0.0375
G1 X237.783 Y145.286 E0.03193
G1 X236.869 Y144.791 E0.0375
G1 X236.046 Y144.469 E0.03193
G1 X235.039 Y144.213 E0.03749
G1 X234.279 Y144.119 E0.02763
G1 X116.24 Y144.086 E4.26111
G1 X114.961 Y144.213 E0.0464
G1 X113.954 Y144.469 E0.03749
G1 X113.131 Y144.791 E0.03193
G1 X112.217 Y145.286 E0.0375
G1 X111.547 Y145.765 E0.02976
G1 X111.824 Y146.153 F30000
G1 F4200
G1 X111.776 Y146.188 E0.00217
G1 X111.099 Y146.813 E0.03323
G1 X110.528 Y147.488 E0.03193
G1 X110.026 Y148.26 E0.03323
G1 X109.622 Y149.09 E0.03334
G1 X109.297 Y150.108 E0.03858
G1 X109.166 Y151.2 E0.03968
G1 X109.17 Y195.792 E1.60976
G1 X109.716 Y197.731 E0.07269
G1 X110.473 Y198.968 E0.05234
G1 X111.249 Y199.871 E0.04298
G1 X112.778 Y200.643 E0.06182
G1 X113.866 Y200.903 E0.0404
G1 X141.213 Y205.601 E1.00167
G1 X144.748 Y206.051 E0.12866
G1 X146.847 Y206.171 E0.07588
G1 X203.153 Y206.171 E2.0326
G1 X205.084 Y206.065 E0.06979
G1 X208.861 Y205.589 E0.13744
G1 X235.898 Y200.951 E0.99028
G1 X236.964 Y200.704 E0.03949
G1 X238.744 Y199.701 E0.07375
G1 X239.552 Y198.882 E0.04153
G1 X240.503 Y197.208 E0.06952
G1 X240.714 Y196.396 E0.03026
G1 X240.834 Y195.461 E0.03405
G1 X240.834 Y151.199 E1.59781
G1 X240.703 Y150.108 E0.03967
G1 X240.378 Y149.09 E0.03858
G1 X239.974 Y148.26 E0.03334
G1 X239.472 Y147.488 E0.03323
G1 X238.901 Y146.813 E0.03193
G1 X238.224 Y146.188 E0.03323
G1 X237.505 Y145.674 E0.03193
G1 X236.696 Y145.235 E0.03323
G1 X235.872 Y144.913 E0.03193
G1 X234.22 Y144.592 E0.06074
G1 X116.24 Y144.563 E4.25898
G1 X115.02 Y144.687 E0.04426
G1 X114.128 Y144.913 E0.03323
G1 X113.304 Y145.235 E0.03193
G1 X112.495 Y145.674 E0.03323
G1 X111.873 Y146.119 E0.0276
G1 X112.151 Y146.507 F30000
G1 F4200
G1 X112.053 Y146.576 E0.00433
G1 X111.463 Y147.12 E0.02896
G1 X110.893 Y147.796 E0.03193
G1 X110.455 Y148.468 E0.02896
G1 X110.05 Y149.299 E0.03334
G1 X109.767 Y150.186 E0.03363
G1 X109.644 Y151.2 E0.03686
G1 X109.648 Y195.792 E1.60976
G1 X110.123 Y197.482 E0.06336
G1 X110.88 Y198.719 E0.05234
G1 X111.475 Y199.435 E0.03362
G1 X112.889 Y200.179 E0.05766
G1 X113.977 Y200.439 E0.0404
G1 X141.284 Y205.129 E1.0002
G1 X144.798 Y205.577 E0.12787
G1 X146.847 Y205.694 E0.07409
G1 X203.153 Y205.694 E2.0326
G1 X205.056 Y205.588 E0.06879
G1 X208.78 Y205.119 E0.13552
G1 X235.818 Y200.481 E0.99028
G1 X236.853 Y200.24 E0.03837
G1 X238.404 Y199.366 E0.06428
G1 X239.212 Y198.547 E0.04153
G1 X240.041 Y197.088 E0.06059
G1 X240.252 Y196.276 E0.03026
G1 X240.357 Y195.461 E0.02967
G1 X240.356 Y151.199 E1.59781
G1 X240.233 Y150.186 E0.03684
G1 X239.95 Y149.299 E0.03363
G1 X239.545 Y148.468 E0.03334
G1 X239.107 Y147.796 E0.02896
G1 X238.537 Y147.12 E0.03193
G1 X237.947 Y146.576 E0.02896
G1 X237.228 Y146.062 E0.03193
G1 X236.522 Y145.679 E0.02896
G1 X235.698 Y145.357 E0.03193
G1 X234.161 Y145.065 E0.05648
G1 X116.24 Y145.04 E4.25684
G1 X115.079 Y145.16 E0.04212
G1 X114.302 Y145.357 E0.02896
G1 X113.478 Y145.679 E0.03193
G1 X112.772 Y146.062 E0.02896
G1 X112.199 Y146.472 E0.02543
G1 E-0.75 F1800
M204 S1500
G1 Z0.6 F30000
M204 S1000
G1 X114.533 Y149.534
G1 Z0.2
G1 E0.75 F1800
;WIDTH:0.444
G1 F4200
G1 X114.871 Y149.277 E0.01289
G1 X115.5 Y149.006 E0.02079
G1 X115.757 Y148.94 E0.00806
G1 X116.329 Y148.875 E0.01745
G1 X233.684 Y148.876 E3.56156
G1 X234.244 Y148.94 E0.0171
G1 X234.493 Y149.004 E0.0078
G1 X235.068 Y149.242 E0.01889
G1 X235.593 Y149.611 E0.01947
G1 X235.746 Y149.759 E0.00647
G1 X236.174 Y150.305 E0.02106
G1 X236.429 Y150.855 E0.0184
G1 X236.522 Y151.278 E0.01312
G1 X236.522 Y195.269 E1.33507
G1 X236.452 Y195.66 E0.01204
G1 X236.26 Y196.054 E0.01331
G1 X235.957 Y196.376 E0.01344
G1 X235.61 Y196.581 E0.01223
G1 X235.097 Y196.693 E0.01594
G1 X226.676 Y196.704 E0.25555
G1 X225.226 Y196.777 E0.04406
G1 X224.524 Y196.838 E0.02139
G1 X223.085 Y197.02 E0.04404
G1 X221.656 Y197.273 E0.04403
G1 X220.958 Y197.423 E0.02167
G1 X220.265 Y197.591 E0.02162
G1 X218.869 Y197.986 E0.04403
G1 X217.494 Y198.45 E0.04404
G1 X216.828 Y198.703 E0.02164
G1 X215.367 Y199.3 E0.04788
G1 X213.8 Y199.88 E0.05073
G1 X212.204 Y200.389 E0.05085
G1 X210.586 Y200.825 E0.05084
G1 X208.981 Y201.181 E0.04989
G1 X208.148 Y201.336 E0.02572
G1 X206.498 Y201.585 E0.05062
G1 X204.804 Y201.762 E0.05169
G1 X203.112 Y201.859 E0.05144
G1 X200.581 Y201.859 E0.0768
G1 X198.875 Y201.76 E0.05187
G1 X198.032 Y201.682 E0.02571
G1 X196.384 Y201.472 E0.05041
G1 X195.541 Y201.334 E0.02593
G1 X193.928 Y201.015 E0.04988
G1 X192.282 Y200.611 E0.05145
G1 X191.466 Y200.381 E0.02574
G1 X189.9 Y199.88 E0.04989
G1 X188.331 Y199.3 E0.05075
G1 X187.088 Y198.788 E0.04081
G1 X186.087 Y198.407 E0.03249
G1 X184.594 Y197.914 E0.04772
G1 X183.074 Y197.502 E0.04781
G1 X182.327 Y197.332 E0.02323
G1 X180.778 Y197.045 E0.0478
G1 X179.217 Y196.842 E0.04779
G1 X178.455 Y196.775 E0.02322
G1 X176.873 Y196.701 E0.04806
G1 X176.1 Y196.697 E0.02344
G1 X174.994 Y196.723 E0.03359
G1 X173.341 Y196.698 E0.05017
G1 X171.735 Y196.762 E0.04878
G1 X170.962 Y196.825 E0.02356
G1 X169.366 Y197.023 E0.04879
G1 X167.793 Y197.307 E0.04852
G1 X166.237 Y197.678 E0.04853
G1 X164.696 Y198.137 E0.0488
G1 X163.948 Y198.394 E0.02401
G1 X163.197 Y198.676 E0.02435
G1 X160.918 Y199.588 E0.07448
G1 X159.316 Y200.141 E0.05144
G1 X158.5 Y200.391 E0.0259
G1 X156.917 Y200.818 E0.04975
G1 X155.277 Y201.182 E0.05098
G1 X153.631 Y201.469 E0.05073
G1 X152.791 Y201.586 E0.02572
G1 X151.105 Y201.762 E0.05146
G1 X149.418 Y201.859 E0.05127
G1 X146.888 Y201.859 E0.0768
G1 X145.196 Y201.762 E0.05144
G1 X143.502 Y201.585 E0.05169
G1 X141.852 Y201.336 E0.05062
G1 X141.019 Y201.181 E0.02572
G1 X139.414 Y200.825 E0.04989
G1 X137.796 Y200.389 E0.05084
G1 X136.2 Y199.88 E0.05085
G1 X134.633 Y199.3 E0.05073
G1 X133.139 Y198.69 E0.04899
G1 X132.439 Y198.425 E0.02271
G1 X130.993 Y197.944 E0.04623
G1 X129.525 Y197.539 E0.04623
G1 X128.804 Y197.37 E0.02249
G1 X127.379 Y197.094 E0.04404
G1 X126.023 Y196.899 E0.04158
G1 X124.65 Y196.768 E0.04184
G1 X123.981 Y196.728 E0.02035
G1 X122.587 Y196.693 E0.04231
G1 X114.878 Y196.692 E0.23394
G1 X114.397 Y196.589 E0.01494
G1 X114.185 Y196.481 E0.00722
G1 X113.994 Y196.343 E0.00717
G1 X113.765 Y196.09 E0.01034
G1 X113.571 Y195.73 E0.01241
G1 X113.482 Y195.328 E0.01248
G1 X113.478 Y151.278 E1.33686
G1 X113.571 Y150.855 E0.01312
G1 X113.826 Y150.304 E0.01843
G1 X114.287 Y149.722 E0.02255
G1 X114.485 Y149.571 E0.00756
G1 X114.723 Y149.888 F30000
G1 F4200
G1 X115.091 Y149.613 E0.01397
G1 X115.641 Y149.382 E0.01811
G1 X115.817 Y149.337 E0.00548
G1 X116.34 Y149.276 E0.01599
G1 X233.673 Y149.277 E3.56085
G1 X234.184 Y149.337 E0.01563
G1 X234.355 Y149.38 E0.00536
G1 X234.857 Y149.584 E0.01644
G1 X235.328 Y149.913 E0.01743
G1 X235.442 Y150.02 E0.00474
G1 X235.821 Y150.495 E0.01845
G1 X236.056 Y151.004 E0.01701
G1 X236.121 Y151.299 E0.00917
G1 X236.121 Y195.25 E1.33385
G1 X236.063 Y195.557 E0.00948
G1 X235.917 Y195.844 E0.00977
G1 X235.69 Y196.075 E0.00983
G1 X235.44 Y196.217 E0.00872
G1 X235.076 Y196.292 E0.01128
G1 X226.666 Y196.303 E0.25523
G1 X225.199 Y196.377 E0.04459
G1 X224.482 Y196.44 E0.02185
G1 X223.025 Y196.623 E0.04457
G1 X221.579 Y196.879 E0.04457
G1 X220.868 Y197.032 E0.02205
G1 X220.164 Y197.203 E0.02201
G1 X218.751 Y197.603 E0.04457
G1 X217.359 Y198.072 E0.04457
G1 X216.681 Y198.33 E0.02203
G1 X215.225 Y198.925 E0.04773
G1 X213.674 Y199.5 E0.05021
G1 X212.095 Y200.003 E0.05029
G1 X210.495 Y200.435 E0.05029
G1 X208.897 Y200.789 E0.04965
G1 X208.078 Y200.941 E0.02531
G1 X206.443 Y201.188 E0.05017
G1 X204.777 Y201.362 E0.05085
G1 X203.106 Y201.458 E0.05077
G1 X200.587 Y201.458 E0.07645
G1 X198.909 Y201.361 E0.05103
G1 X198.079 Y201.284 E0.02529
G1 X196.445 Y201.075 E0.04999
G1 X195.615 Y200.94 E0.02551
G1 X194.011 Y200.623 E0.04964
G1 X192.388 Y200.224 E0.05072
G1 X191.584 Y199.997 E0.02533
G1 X190.026 Y199.5 E0.04965
G1 X188.474 Y198.925 E0.05022
G1 X187.236 Y198.415 E0.04064
G1 X186.222 Y198.029 E0.03293
G1 X184.71 Y197.53 E0.04833
G1 X183.171 Y197.113 E0.04839
G1 X182.408 Y196.939 E0.02373
G1 X180.841 Y196.649 E0.04838
G1 X179.26 Y196.444 E0.04838
G1 X178.482 Y196.375 E0.02372
G1 X176.883 Y196.3 E0.04856
G1 X176.097 Y196.296 E0.02387
G1 X174.996 Y196.322 E0.03341
G1 X173.336 Y196.297 E0.05038
G1 X171.711 Y196.361 E0.04936
G1 X170.92 Y196.426 E0.02407
G1 X169.306 Y196.626 E0.04938
G1 X167.711 Y196.915 E0.0492
G1 X166.134 Y197.291 E0.0492
G1 X164.574 Y197.755 E0.04939
G1 X163.813 Y198.017 E0.02443
G1 X163.052 Y198.302 E0.02465
G1 X160.774 Y199.214 E0.07447
G1 X159.195 Y199.758 E0.05068
G1 X158.392 Y200.004 E0.02548
G1 X156.817 Y200.429 E0.04951
G1 X155.195 Y200.789 E0.05043
G1 X153.565 Y201.074 E0.05021
G1 X152.739 Y201.189 E0.0253
G1 X151.077 Y201.362 E0.05072
G1 X149.413 Y201.458 E0.0506
G1 X146.894 Y201.458 E0.07645
G1 X145.223 Y201.362 E0.05077
G1 X143.557 Y201.188 E0.05085
G1 X141.922 Y200.941 E0.05017
G1 X141.103 Y200.789 E0.02531
G1 X139.505 Y200.435 E0.04965
G1 X137.905 Y200.003 E0.05029
G1 X136.326 Y199.5 E0.05029
G1 X134.775 Y198.925 E0.05021
G1 X133.285 Y198.317 E0.04884
G1 X132.573 Y198.047 E0.02311
G1 X131.11 Y197.56 E0.04679
G1 X129.624 Y197.15 E0.04679
G1 X128.888 Y196.978 E0.02296
G1 X127.446 Y196.698 E0.04457
G1 X126.07 Y196.5 E0.04217
G1 X124.681 Y196.368 E0.04235
G1 X123.998 Y196.327 E0.02078
G1 X122.592 Y196.292 E0.04268
G1 X114.899 Y196.291 E0.23345
G1 X114.551 Y196.218 E0.0108
G1 X114.407 Y196.147 E0.00489
G1 X114.246 Y196.03 E0.00603
G1 X114.107 Y195.878 E0.00626
G1 X113.938 Y195.564 E0.0108
G1 X113.883 Y195.307 E0.00798
G1 X113.879 Y151.299 E1.33557
G1 X113.944 Y151.004 E0.00917
G1 X114.18 Y150.495 E0.01702
G1 X114.584 Y149.993 E0.01957
G1 X114.675 Y149.924 E0.00346
G1 X114.909 Y150.244 F30000
G1 F4200
G1 X115.309 Y149.951 E0.01504
G1 X115.78 Y149.758 E0.01546
G1 X115.877 Y149.734 E0.00302
G1 X116.352 Y149.677 E0.01452
G1 X233.661 Y149.678 E3.56013
G1 X234.123 Y149.734 E0.01415
G1 X234.22 Y149.758 E0.00302
G1 X234.648 Y149.927 E0.01396
G1 X235.066 Y150.217 E0.01546
G1 X235.14 Y150.285 E0.00302
G1 X235.467 Y150.687 E0.01574
G1 X235.683 Y151.153 E0.01558
G1 X235.72 Y151.321 E0.00523
G1 X235.72 Y195.231 E1.33259
G1 X235.675 Y195.452 E0.00684
G1 X235.604 Y195.592 E0.00479
G1 X235.466 Y195.742 E0.00616
G1 X235.272 Y195.851 E0.00677
G1 X235.057 Y195.891 E0.00663
G1 X226.656 Y195.902 E0.25497
G1 X225.171 Y195.976 E0.04511
G1 X224.439 Y196.041 E0.02231
G1 X222.964 Y196.226 E0.0451
G1 X221.501 Y196.485 E0.0451
G1 X220.779 Y196.641 E0.02243
G1 X220.062 Y196.815 E0.02239
G1 X218.632 Y197.219 E0.0451
G1 X217.224 Y197.695 E0.0451
G1 X216.533 Y197.957 E0.02241
G1 X215.083 Y198.551 E0.04757
G1 X213.547 Y199.119 E0.04969
G1 X211.986 Y199.617 E0.04974
G1 X210.403 Y200.044 E0.04974
G1 X208.814 Y200.396 E0.04941
G1 X208.008 Y200.546 E0.02489
G1 X206.388 Y200.791 E0.04972
G1 X204.749 Y200.962 E0.05001
G1 X203.101 Y201.057 E0.0501
G1 X200.593 Y201.057 E0.07609
G1 X198.942 Y200.961 E0.05018
G1 X198.126 Y200.885 E0.02488
G1 X196.506 Y200.679 E0.04957
G1 X195.69 Y200.546 E0.0251
G1 X194.093 Y200.23 E0.0494
G1 X192.493 Y199.837 E0.04999
G1 X191.703 Y199.614 E0.02491
G1 X190.152 Y199.119 E0.04941
G1 X188.617 Y198.55 E0.0497
G1 X187.383 Y198.042 E0.04048
G1 X186.356 Y197.651 E0.03337
G1 X184.825 Y197.146 E0.04893
G1 X183.268 Y196.724 E0.04896
G1 X182.489 Y196.546 E0.02422
G1 X180.903 Y196.252 E0.04896
G1 X179.304 Y196.045 E0.04896
G1 X178.509 Y195.975 E0.02422
G1 X176.894 Y195.899 E0.04906
G1 X176.093 Y195.894 E0.0243
G1 X174.998 Y195.921 E0.03324
G1 X173.331 Y195.896 E0.0506
G1 X171.687 Y195.961 E0.04995
G1 X170.879 Y196.027 E0.02458
G1 X169.245 Y196.23 E0.04997
G1 X167.628 Y196.522 E0.04987
G1 X166.03 Y196.903 E0.04987
G1 X164.452 Y197.373 E0.04998
G1 X163.677 Y197.639 E0.02486
G1 X162.907 Y197.928 E0.02496
G1 X160.629 Y198.84 E0.07445
G1 X159.074 Y199.376 E0.04992
G1 X158.285 Y199.618 E0.02507
G1 X156.717 Y200.041 E0.04927
G1 X155.113 Y200.397 E0.04988
G1 X153.5 Y200.678 E0.04969
G1 X152.688 Y200.791 E0.02488
G1 X151.049 Y200.962 E0.04999
G1 X149.407 Y201.057 E0.04993
G1 X146.899 Y201.057 E0.07609
G1 X145.251 Y200.962 E0.0501
G1 X143.612 Y200.791 E0.05001
G1 X141.992 Y200.546 E0.04972
G1 X141.186 Y200.396 E0.02489
G1 X139.597 Y200.044 E0.04941
G1 X138.014 Y199.617 E0.04974
G1 X136.453 Y199.119 E0.04974
G1 X134.917 Y198.55 E0.04969
G1 X133.432 Y197.943 E0.0487
G1 X132.707 Y197.669 E0.02352
G1 X131.227 Y197.176 E0.04735
G1 X129.723 Y196.761 E0.04735
G1 X128.971 Y196.585 E0.02343
G1 X127.512 Y196.302 E0.0451
G1 X126.118 Y196.102 E0.04276
G1 X124.712 Y195.968 E0.04286
G1 X124.014 Y195.926 E0.02121
G1 X122.597 Y195.891 E0.04304
G1 X114.92 Y195.89 E0.23298
G1 X114.698 Y195.844 E0.00687
G1 X114.626 Y195.811 E0.0024
G1 X114.498 Y195.717 E0.00483
G1 X114.444 Y195.659 E0.0024
G1 X114.322 Y195.445 E0.00747
G1 X114.284 Y195.284 E0.00502
G1 X114.28 Y151.321 E1.33422
G1 X114.317 Y151.153 E0.00523
G1 X114.533 Y150.687 E0.01558
G1 X114.864 Y150.283 E0.01585
G1 X115.159 Y150.553 F30000
G1 F4200
G1 X115.177 Y150.536 E0.00076
G1 X115.511 Y150.297 E0.01245
G1 X115.533 Y150.285 E0.00076
G1 X115.915 Y150.136 E0.01245
G1 X115.939 Y150.13 E0.00076
G1 X116.358 Y150.078 E0.01282
G1 X233.642 Y150.078 E3.55937
G1 X234.061 Y150.13 E0.01282
G1 X234.085 Y150.136 E0.00076
G1 X234.467 Y150.285 E0.01245
G1 X234.489 Y150.297 E0.00076
G1 X234.823 Y150.536 E0.01245
G1 X234.841 Y150.553 E0.00076
G1 X235.107 Y150.867 E0.01248
G1 X235.121 Y150.89 E0.00083
G1 X235.309 Y151.3 E0.01369
G1 X235.318 Y151.342 E0.00131
G1 X235.319 Y195.218 E1.33155
G1 X235.315 Y195.243 E0.00078
G1 X235.294 Y195.325 E0.00257
G1 X235.268 Y195.371 E0.0016
G1 X235.2 Y195.44 E0.00292
G1 X235.151 Y195.467 E0.00171
G1 X235.068 Y195.487 E0.00259
G1 X235.045 Y195.49 E0.00071
G1 X226.645 Y195.501 E0.25491
G1 X225.143 Y195.576 E0.04564
G1 X224.396 Y195.642 E0.02276
