; generated by SuperSlicer 2.4 on 2023-03-18 at 02:16:00 UTC


;
;

;
;
; TODO: check the size of the extruder and the y-bar clearance. Optimize & test supports.

; external perimeters extrusion width = 0.44mm
; perimeters extrusion width = 0.44mm
; infill extrusion width = 0.44mm
; solid infill extrusion width = 0.44mm
; top infill extrusion width = 0.44mm
; first layer extrusion width = 0.44mm

; external perimeters extrusion width = 0.44mm
; perimeters extrusion width = 0.44mm
; infill extrusion width = 0.44mm
; solid infill extrusion width = 0.44mm
; top infill extrusion width = 0.44mm
; first layer extrusion width = 0.44mm

; external perimeters extrusion width = 0.44mm
; perimeters extrusion width = 0.44mm
; infill extrusion width = 0.44mm
; solid infill extrusion width = 0.44mm
; top infill extrusion width = 0.44mm
; first layer extrusion width = 0.44mm

; external perimeters extrusion width = 0.44mm
; perimeters extrusion width = 0.44mm
; infill extrusion width = 0.44mm
; solid infill extrusion width = 0.44mm
; top infill extrusion width = 0.44mm
; first layer extrusion width = 0.44mm

; external perimeters extrusion width = 0.44mm
; perimeters extrusion width = 0.44mm
; infill extrusion width = 0.44mm
; solid infill extrusion width = 0.44mm
; top infill extrusion width = 0.44mm
; first layer extrusion width = 0.44mm

; external perimeters extrusion width = 0.44mm
; perimeters extrusion width = 0.44mm
; infill extrusion width = 0.44mm
; solid infill extrusion width = 0.44mm
; top infill extrusion width = 0.44mm
; first layer extrusion width = 0.44mm

; external perimeters extrusion width = 0.44mm
; perimeters extrusion width = 0.44mm
; infill extrusion width = 0.44mm
; solid infill extrusion width = 0.44mm
; top infill extrusion width = 0.44mm
; first layer extrusion width = 0.44mm

; external perimeters extrusion width = 0.44mm
; perimeters extrusion width = 0.44mm
; infill extrusion width = 0.44mm
; solid infill extrusion width = 0.44mm
; top infill extrusion width = 0.44mm
; first layer extrusion width = 0.44mm

; external perimeters extrusion width = 0.44mm
; perimeters extrusion width = 0.44mm
; infill extrusion width = 0.44mm
; solid infill extrusion width = 0.44mm
; top infill extrusion width = 0.44mm
; first layer extrusion width = 0.44mm

; external perimeters extrusion width = 0.44mm
; perimeters extrusion width = 0.44mm
; infill extrusion width = 0.44mm
; solid infill extrusion width = 0.44mm
; top infill extrusion width = 0.44mm
; first layer extrusion width = 0.44mm

; external perimeters extrusion width = 0.44mm
; perimeters extrusion width = 0.44mm
; infill extrusion width = 0.44mm
; solid infill extrusion width = 0.44mm
; top infill extrusion width = 0.44mm
; first layer extrusion width = 0.44mm

; external perimeters extrusion width = 0.44mm
; perimeters extrusion width = 0.44mm
; infill extrusion width = 0.44mm
; solid infill extrusion width = 0.44mm
; top infill extrusion width = 0.44mm
; first layer extrusion width = 0.44mm

; external perimeters extrusion width = 0.44mm
; perimeters extrusion width = 0.44mm
; infill extrusion width = 0.44mm
; solid infill extrusion width = 0.44mm
; top infill extrusion width = 0.44mm
; first layer extrusion width = 0.44mm

; external perimeters extrusion width = 0.44mm
; perimeters extrusion width = 0.44mm
; infill extrusion width = 0.44mm
; solid infill extrusion width = 0.44mm
; top infill extrusion width = 0.44mm
; first layer extrusion width = 0.44mm

; external perimeters extrusion width = 0.44mm
; perimeters extrusion width = 0.44mm
; infill extrusion width = 0.44mm
; solid infill extrusion width = 0.44mm
; top infill extrusion width = 0.44mm
; first layer extrusion width = 0.44mm

; external perimeters extrusion width = 0.44mm
; perimeters extrusion width = 0.44mm
; infill extrusion width = 0.44mm
; solid infill extrusion width = 0.44mm
; top infill extrusion width = 0.44mm
; first layer extrusion width = 0.44mm

; external perimeters extrusion width = 0.44mm
; perimeters extrusion width = 0.44mm
; infill extrusion width = 0.44mm
; solid infill extrusion width = 0.44mm
; top infill extrusion width = 0.44mm
; first layer extrusion width = 0.44mm

; object:{"name":"retraction_calibration","id":"retraction_calibration id:0 copy 0","object_center":[174.996400,174.999700,0.000000],"boundingbox_center":[174.996400,174.999700,7.700000],"boundingbox_size":[26.805401,26.806400,15.400000]}
; plater:{"center":[174.996400,174.999700,0.000000],"boundingbox_center":[174.996400,174.999700,7.700000],"boundingbox_size":[26.805401,26.806400,15.400000]}

;TYPE:Custom
; M190 S0
; M109 S0 ; uncomment to remove set&wait temp gcode added automatically after this start gcode
print_start EXTRUDER=260 BED=105 CHAMBER=50
M107
G21 ; set units to millimeters
G90 ; use absolute coordinates
M83 ; use relative distances for extrusion
;_TOOLCHANGE 0
M109 S260 ; set temperature and wait for it to be reached
M190 S105 ; set bed temperature and wait for it to be reached
M107
;LAYER_CHANGE
;Z:0.2
;HEIGHT:0.2
;BEFORE_LAYER_CHANGE
;0.2


G1 Z0.2 F30000
;AFTER_LAYER_CHANGE
;0.2
G92 E0
G1 E-0.35 F3000
G1 Z0.4 F30000
M204 S1000
G1 X160.016 Y159.314
G1 Z0.2
G1 E0.35 F1800
;TYPE:Skirt
;WIDTH:0.52
G1 F4200
G1 X158.921 Y160.502 E0.06908
G1 X158.104 Y161.897 E0.06914
G1 X157.602 Y163.432 E0.06907
G1 X157.459 Y164.421 E0.04271
G1 X157.459 Y185.579 E0.90482
G1 X157.755 Y187.169 E0.06913
G1 X158.381 Y188.657 E0.06906
G1 X159.31 Y189.981 E0.06914
G1 X160.498 Y191.075 E0.06908
G1 X161.893 Y191.893 E0.06914
G1 X163.428 Y192.395 E0.06907
G1 X164.417 Y192.537 E0.04271
G1 X185.301 Y192.553 E0.89309
G1 X186.863 Y192.325 E0.0675
G1 X188.345 Y191.777 E0.06759
G1 X189.681 Y190.932 E0.06759
G1 X190.812 Y189.829 E0.06754
G1 X191.386 Y189.039 E0.04181
G1 X192.086 Y187.622 E0.06755
G1 X192.476 Y186.091 E0.06756
G1 X192.54 Y185.488 E0.02593
G1 X192.565 Y165 E0.87613
G1 X192.476 Y163.909 E0.04684
G1 X192.274 Y162.954 E0.04173
G1 X191.689 Y161.486 E0.06755
G1 X191.386 Y160.961 E0.02592
G1 X190.406 Y159.72 E0.06764
G1 X189.191 Y158.711 E0.06754
G1 X188.345 Y158.223 E0.04175
G1 X186.863 Y157.675 E0.06759
G1 X185.301 Y157.447 E0.0675
G1 X164.417 Y157.463 E0.89309
G1 X162.828 Y157.759 E0.06913
G1 X161.339 Y158.385 E0.06906
G1 X160.065 Y159.279 E0.06658
G1 X160.339 Y159.668 F30000
G1 F4200
G1 X160.315 Y159.685 E0.00127
G1 X159.293 Y160.801 E0.06472
G1 X158.53 Y162.11 E0.06478
G1 X158.064 Y163.55 E0.06472
G1 X157.936 Y164.438 E0.03835
G1 X157.936 Y185.562 E0.90336
G1 X158.217 Y187.051 E0.06477
G1 X158.808 Y188.444 E0.06471
G1 X159.682 Y189.681 E0.06478
G1 X160.798 Y190.704 E0.06472
G1 X162.107 Y191.466 E0.06478
G1 X163.546 Y191.932 E0.06472
G1 X164.434 Y192.06 E0.03835
G1 X185.301 Y192.076 E0.89235
G1 X186.764 Y191.859 E0.06325
G1 X188.151 Y191.341 E0.06333
G1 X189.401 Y190.546 E0.06333
G1 X190.457 Y189.51 E0.06328
G1 X190.973 Y188.8 E0.03754
G1 X191.632 Y187.475 E0.0633
G1 X192.002 Y186.041 E0.0633
G1 X192.065 Y185.438 E0.02593
G1 X192.088 Y165 E0.874
G1 X192.002 Y163.959 E0.0447
G1 X191.82 Y163.102 E0.03747
G1 X191.276 Y161.725 E0.0633
G1 X190.973 Y161.2 E0.02592
G1 X190.052 Y160.039 E0.06337
G1 X188.911 Y159.097 E0.06329
G1 X188.151 Y158.659 E0.03749
G1 X186.764 Y158.141 E0.06333
G1 X185.301 Y157.924 E0.06325
G1 X164.434 Y157.94 E0.89235
G1 X162.946 Y158.221 E0.06477
G1 X161.552 Y158.811 E0.06471
G1 X160.388 Y159.634 E0.06094
G1 X160.664 Y160.021 F30000
G1 F4200
G1 X160.614 Y160.057 E0.00261
G1 X159.664 Y161.101 E0.06037
G1 X158.957 Y162.324 E0.06042
G1 X158.526 Y163.668 E0.06036
G1 X158.413 Y164.455 E0.03398
G1 X158.413 Y185.545 E0.90191
G1 X158.68 Y186.933 E0.06041
G1 X159.234 Y188.23 E0.06036
G1 X160.053 Y189.382 E0.06042
G1 X161.097 Y190.332 E0.06037
G1 X162.32 Y191.039 E0.06042
G1 X163.664 Y191.47 E0.06036
G1 X164.451 Y191.583 E0.03398
G1 X185.301 Y191.599 E0.89162
G1 X186.665 Y191.392 E0.05899
G1 X187.957 Y190.905 E0.05906
G1 X189.121 Y190.161 E0.05907
G1 X190.103 Y189.191 E0.05903
G1 X190.56 Y188.562 E0.03326
G1 X191.179 Y187.327 E0.05904
G1 X191.527 Y185.991 E0.05905
G1 X191.591 Y185.388 E0.02593
G1 X191.611 Y165 E0.87186
G1 X191.527 Y164.009 E0.04256
G1 X191.366 Y163.249 E0.0332
G1 X190.863 Y161.963 E0.05904
G1 X190.56 Y161.438 E0.02592
G1 X189.697 Y160.359 E0.0591
G1 X188.63 Y159.483 E0.05903
G1 X187.957 Y159.095 E0.03322
G1 X186.665 Y158.608 E0.05906
G1 X185.301 Y158.401 E0.05899
G1 X164.451 Y158.417 E0.89162
G1 X163.064 Y158.683 E0.06041
G1 X161.766 Y159.238 E0.06036
G1 X160.713 Y159.987 E0.05524
G1 X160.99 Y160.373 F30000
G1 F4200
G1 X160.914 Y160.428 E0.00402
G1 X160.035 Y161.4 E0.05602
G1 X159.383 Y162.537 E0.05606
G1 X158.988 Y163.786 E0.05601
G1 X158.89 Y164.472 E0.02962
G1 X158.89 Y185.528 E0.90045
G1 X159.142 Y186.815 E0.05605
G1 X159.661 Y188.017 E0.056
G1 X160.425 Y189.082 E0.05606
G1 X161.396 Y189.961 E0.05602
G1 X162.534 Y190.613 E0.05606
G1 X163.782 Y191.008 E0.05601
G1 X164.468 Y191.106 E0.02962
G1 X185.301 Y191.122 E0.89088
G1 X186.566 Y190.925 E0.05474
G1 X187.763 Y190.47 E0.0548
G1 X188.84 Y189.775 E0.05481
G1 X189.748 Y188.872 E0.05477
G1 X190.147 Y188.323 E0.02899
G1 X190.725 Y187.18 E0.05478
G1 X191.053 Y185.942 E0.05479
G1 X191.116 Y185.338 E0.02593
G1 X191.134 Y165 E0.86973
G1 X191.053 Y164.058 E0.04043
G1 X190.912 Y163.397 E0.02894
G1 X190.45 Y162.202 E0.05478
G1 X190.147 Y161.677 E0.02592
G1 X189.343 Y160.678 E0.05484
G1 X188.35 Y159.869 E0.05477
G1 X187.763 Y159.53 E0.02896
G1 X186.566 Y159.075 E0.0548
G1 X185.301 Y158.878 E0.05474
G1 X164.468 Y158.894 E0.89088
G1 X163.182 Y159.146 E0.05605
G1 X161.979 Y159.665 E0.056
G1 X161.039 Y160.339 E0.04947
G1 E-0.35 F3000
M204 S1500
G1 Z0.4 F30000
; printing object retraction_calibration id:0 copy 0
; acceleration to travel
G1 X172.024 Y163.524
; decel to extrusion
M204 S1000
G1 X179.348 Y165.648
; end travel
G1 Z0.2
G1 E0.35 F1800
;TYPE:Internal perimeter
;WIDTH:0.444
G1 F4200
G1 X179.308 Y165.948 E0.01088
G1 X179.273 Y166.99 E0.03746
G1 X179.273 Y183.01 E0.57596
G1 X179.308 Y184.052 E0.03746
G1 X179.348 Y184.352 E0.01088
G1 X179.048 Y184.311 E0.01088
G1 X178.006 Y184.277 E0.03746
G1 X171.986 Y184.277 E0.21644
G1 X170.945 Y184.311 E0.03746
G1 X170.645 Y184.352 E0.01088
G1 X170.685 Y184.052 E0.01088
G1 X170.719 Y183.01 E0.03746
G1 X170.719 Y167.298 E0.56488
G1 X170.714 Y166.481 E0.02938
G1 X170.684 Y165.941 E0.01942
G1 X170.645 Y165.648 E0.01062
G1 X170.938 Y165.688 E0.01062
G1 X171.477 Y165.718 E0.01943
G1 X172.495 Y165.723 E0.03658
G1 X178.514 Y165.718 E0.21639
G1 X179.055 Y165.688 E0.01948
G1 X179.288 Y165.656 E0.00847
G1 E-0.35 F3000
M204 S1500
G1 Z0.4 F30000
M204 S1000
G1 X182.602 Y165.2
G1 Z0.2
G1 E0.35 F1800
G1 F4200
G1 X182.641 Y164.829 E0.01342
G1 X182.91 Y164.087 E0.02839
G1 X183.156 Y163.665 E0.01756
G1 X183.475 Y163.311 E0.01713
G1 X183.86 Y163.032 E0.01709
G1 X184.294 Y162.838 E0.01708
G1 X184.759 Y162.739 E0.01708
G1 X185.234 Y162.739 E0.01708
G1 X185.699 Y162.838 E0.01708
G1 X186.133 Y163.032 E0.01708
G1 X186.517 Y163.311 E0.01709
G1 X186.835 Y163.664 E0.01708
G1 X187.073 Y164.075 E0.01708
G1 X187.219 Y164.527 E0.01709
G1 X187.269 Y165.002 E0.01717
G1 X187.226 Y165.444 E0.01593
G1 X187.097 Y165.87 E0.01602
G1 X186.886 Y166.263 E0.01602
G1 X186.604 Y166.608 E0.01602
G1 X186.258 Y166.892 E0.01609
G1 X185.851 Y167.112 E0.01664
G1 X185.153 Y167.359 E0.02662
G1 X184.793 Y167.394 E0.01298
G1 X184.429 Y167.293 E0.01361
G1 X184.233 Y167.191 E0.00794
G1 X183.766 Y166.917 E0.01945
G1 X183.389 Y166.608 E0.01756
G1 X183.079 Y166.23 E0.01756
G1 X182.806 Y165.763 E0.01945
G1 X182.703 Y165.567 E0.00794
G1 X182.618 Y165.258 E0.01154
G1 E-0.35 F3000
M204 S1500
G1 Z0.4 F30000
; acceleration to travel
G1 X173.482 Y165.223
; decel to extrusion
M204 S1000
G1 X167.391 Y165.199
; end travel
G1 Z0.2
G1 E0.35 F1800
G1 F4200
G1 X167.289 Y165.567 E0.01373
G1 X167.187 Y165.763 E0.00794
G1 X166.913 Y166.23 E0.01945
G1 X166.604 Y166.608 E0.01755
G1 X166.226 Y166.917 E0.01755
G1 X165.759 Y167.191 E0.01945
G1 X165.564 Y167.293 E0.00794
G1 X165.196 Y167.395 E0.01373
G1 X164.816 Y167.354 E0.01374
G1 X164.064 Y167.077 E0.02878
G1 X163.635 Y166.82 E0.01799
G1 X163.279 Y166.488 E0.01752
G1 X163.001 Y166.089 E0.01747
G1 X162.815 Y165.64 E0.01747
G1 X162.729 Y165.162 E0.01747
G1 X162.747 Y164.677 E0.01747
G1 X162.867 Y164.206 E0.01747
G1 X163.084 Y163.771 E0.01747
G1 X163.389 Y163.393 E0.01747
G1 X163.767 Y163.088 E0.01747
G1 X164.202 Y162.871 E0.01747
G1 X164.673 Y162.75 E0.01747
G1 X165.158 Y162.733 E0.01746
G1 X165.397 Y162.776 E0.00873
G1 X165.636 Y162.819 E0.00873
G1 X166.085 Y163.005 E0.01747
G1 X166.485 Y163.282 E0.01747
G1 X166.817 Y163.639 E0.01752
G1 X167.076 Y164.072 E0.01813
G1 X167.279 Y164.591 E0.02006
G1 X167.349 Y164.811 E0.00828
G1 X167.385 Y165.14 E0.0119
G1 E-0.35 F3000
M204 S1500
G1 Z0.4 F30000
; acceleration to travel
G1 X166.071 Y175.619
; decel to extrusion
M204 S1000
G1 X165.196 Y182.605
; end travel
G1 Z0.2
G1 E0.35 F1800
G1 F4200
G1 X165.564 Y182.707 E0.01373
G1 X165.759 Y182.809 E0.00794
G1 X166.226 Y183.083 E0.01945
G1 X166.604 Y183.392 E0.01755
G1 X166.913 Y183.77 E0.01755
G1 X167.187 Y184.237 E0.01945
G1 X167.289 Y184.433 E0.00794
G1 X167.391 Y184.801 E0.01373
G1 X167.35 Y185.181 E0.01374
G1 X167.074 Y185.932 E0.02878
G1 X166.817 Y186.361 E0.01799
G1 X166.485 Y186.718 E0.01752
G1 X166.085 Y186.995 E0.01747
G1 X165.636 Y187.181 E0.01747
G1 X165.158 Y187.267 E0.01747
G1 X164.673 Y187.25 E0.01747
G1 X164.202 Y187.129 E0.01747
G1 X163.767 Y186.912 E0.01747
G1 X163.389 Y186.607 E0.01747
G1 X163.084 Y186.229 E0.01747
G1 X162.867 Y185.794 E0.01747
G1 X162.747 Y185.323 E0.01747
G1 X162.729 Y184.838 E0.01747
G1 X162.815 Y184.36 E0.01747
G1 X163.001 Y183.911 E0.01747
G1 X163.279 Y183.512 E0.01747
G1 X163.635 Y183.18 E0.01752
G1 X164.064 Y182.923 E0.01799
G1 X164.816 Y182.646 E0.02878
G1 X165.136 Y182.612 E0.01158
G1 E-0.35 F3000
M204 S1500
G1 Z0.4 F30000
; acceleration to travel
G1 X176.826 Y182.637
; decel to extrusion
M204 S1000
G1 X184.619 Y182.654
; end travel
G1 Z0.2
G1 E0.35 F1800
G1 F4200
G1 X184.793 Y182.606 E0.0065
G1 X185.153 Y182.641 E0.01298
G1 X185.851 Y182.888 E0.02662
G1 X186.258 Y183.108 E0.01664
G1 X186.604 Y183.392 E0.01609
G1 X186.886 Y183.737 E0.01602
G1 X187.097 Y184.13 E0.01602
G1 X187.226 Y184.557 E0.01602
G1 X187.269 Y184.998 E0.01593
G1 X187.219 Y185.473 E0.01717
G1 X187.073 Y185.925 E0.01709
G1 X186.835 Y186.336 E0.01708
G1 X186.517 Y186.689 E0.01708
G1 X186.133 Y186.968 E0.01709
G1 X185.699 Y187.162 E0.01708
G1 X185.234 Y187.261 E0.01708
G1 X184.759 Y187.261 E0.01708
G1 X184.294 Y187.162 E0.01708
G1 X183.86 Y186.968 E0.01708
G1 X183.475 Y186.689 E0.01709
G1 X183.156 Y186.335 E0.01713
G1 X182.907 Y185.908 E0.01776
G1 X182.711 Y185.396 E0.01971
G1 X182.642 Y185.182 E0.00808
G1 X182.602 Y184.8 E0.01383
G1 X182.703 Y184.433 E0.0137
G1 X182.806 Y184.237 E0.00794
G1 X183.079 Y183.77 E0.01945
G1 X183.389 Y183.392 E0.01756
G1 X183.766 Y183.083 E0.01756
G1 X184.233 Y182.809 E0.01945
G1 X184.429 Y182.707 E0.00794
G1 X184.561 Y182.67 E0.00495
G1 X184.718 Y182.211 F30000
;TYPE:External perimeter
G1 F3600
G1 X184.718 Y167.789 E0.51847
G1 X184.281 Y167.668 E0.01632
G1 X184.039 Y167.542 E0.00982
G1 X183.536 Y167.247 E0.02094
G1 X183.104 Y166.893 E0.02011
G1 X182.749 Y166.46 E0.02011
G1 X182.454 Y165.957 E0.02094
G1 X182.328 Y165.715 E0.00982
G1 X182.207 Y165.278 E0.01632
G1 X179.802 Y165.278 E0.08647
G1 X179.708 Y165.982 E0.02552
G1 X179.675 Y166.996 E0.0365
G1 X179.675 Y183.004 E0.57548
G1 X179.708 Y184.018 E0.0365
G1 X179.802 Y184.722 E0.02552
G1 X182.207 Y184.722 E0.08647
G1 X182.328 Y184.285 E0.01632
G1 X182.454 Y184.043 E0.00982
G1 X182.749 Y183.54 E0.02094
G1 X183.104 Y183.107 E0.02011
G1 X183.536 Y182.753 E0.02011
G1 X184.039 Y182.458 E0.02094
G1 X184.281 Y182.332 E0.00982
G1 X184.66 Y182.227 E0.01416
;WIPE_START
M204 S1500
G1 X185.117 Y182.175 F30000
;WIPE_END
G1 E-0.35 F3000
G1 Z0.4 F30000
; acceleration to travel
G1 X176.161 Y183.703
; decel to extrusion
M204 S1000
G1 X170.19 Y184.722
; end travel
G1 Z0.2
G1 E0.35 F1800
G1 F3600
G1 X170.285 Y184.018 E0.02552
G1 X170.318 Y183.004 E0.0365
